X:39
T:Dance with Ease
M:2/4
L:1/8
B:Thompson's Compleat Collection of 200 Favourite Country Dances, vol. 3 (London, 1773)
Z:Transcribed and edited by Flynn Titford-Mock, 2007
Z:abc's:AK/Fiddler's Companion
K:G
d | B2 (AG) | A/G/F/E/ Dd/c/ | Bdgc | B G2 d | B2 (AG) | A/G/F/E/ Dg | (f/g/a) A^c | d3 :|
|: d | e c2 e | d B2 d | e/d/c/B/ c/B/A/G/ | A/G/F/E/ Dd/c/ | B g2 B | c a2 c | B2
"tr"A2 | G3 :|

